src/16/panel/battery-good-charging.svg

<svg height="16" width="16" xmlns="http://www.w3.org/2000/svg"><g fill="#bebebe"><path d="M5 5v3.094L6.844 5zm4 0v2h2V5zm2 4.906L9.156 13H11zM5 11v2h2v-2z" opacity=".35"/><path d="M5 7v1.094L5.656 7H5zm6 2.906L9.156 13H11V9.906zM5 11v2h2v-2H5z"/><path d="M6 1v1h4V1zM3.844 3C3.563 3.047 3 3.25 3 4v10c0 1 1 1 1 1h8c1 0 1-1 1-1V4s0-1-1-1H4s-.062-.016-.156 0zM4 4h8v10H4z"/><path d="M8 5v3h3l-3 5v-3H5z"/><path d="M3.844 3C3.563 3.047 3 3.25 3 4v10c0 1 1 1 1 1h8c1 0 1-1 1-1V4s0-1-1-1H4c-.052 0-.062-.016-.156 0zM4 4h8v10H4z"/></g></svg>

<svg xmlns="http://www.w3.org/2000/svg" width="16" height="16" version="1.1">
 <defs>
  <style id="current-color-scheme" type="text/css">
   .ColorScheme-Text { color:#dfdfdf; } .ColorScheme-Highlight { color:#4285f4; }
  </style>
 </defs>
 <path style="opacity:0.3;fill:currentColor" class="ColorScheme-Text" d="M 6,1 V 2 H 3 V 14 C 3,14.55 3.446,15 4,15 H 12 C 12.554,15 13,14.55 13,14 V 2 H 10 V 1 Z M 8,5 V 8 H 11 L 8,13 V 10 H 5 Z"/>
 <path style="fill:currentColor" class="ColorScheme-Text" d="M 3,6 V 14 C 3,14.55 3.446,15 4,15 H 12 C 12.554,15 13,14.55 13,14 V 6 H 8 V 8 H 11 L 8,13 V 10 H 5 L 7.4,6 Z"/>
</svg>
